public/logos/WR.svg

<?xml version="1.0" encoding="UTF-8"?>
<svg xmlns="http://www.w3.org/2000/svg" xmlns:xlink="http://www.w3.org/1999/xlink" width="176pt" height="35.31pt" viewBox="0 0 176 35.31" version="1.1">
<defs>
<clipPath id="clip1">
  <path d="M 83 4 L 101 4 L 101 35.308594 L 83 35.308594 Z M 83 4 "/>
</clipPath>
</defs>
<g id="surface1">
<path style=" stroke:none;fill-rule:nonzero;fill:rgb(13.70697%,26.792908%,50.068665%);fill-opacity:1;" d="M 35.859375 4.886719 L 27.238281 25.226562 C 27.003906 25.78125 26.480469 26.160156 25.835938 26.160156 L 21.480469 26.160156 L 17.738281 15.726562 L 13.179688 25.316406 C 12.949219 25.839844 12.421875 26.191406 11.808594 26.191406 L 7.539062 26.191406 L 0 4.886719 L 6.722656 4.886719 L 10.929688 18.445312 L 15.199219 8.597656 L 13.851562 4.855469 L 19.875 4.855469 L 24.460938 18.417969 L 29.695312 4.855469 L 35.859375 4.886719 "/>
<path style=" stroke:none;fill-rule:nonzero;fill:rgb(13.70697%,26.792908%,50.068665%);fill-opacity:1;" d="M 52.78125 4.886719 L 52.257812 7.925781 C 52.140625 8.625 51.496094 9.183594 50.765625 9.183594 L 43.546875 9.183594 L 42.84375 13.15625 L 51.058594 13.15625 L 50.53125 16.195312 C 50.414062 16.898438 49.773438 17.453125 49.042969 17.453125 L 42.113281 17.453125 L 41.355469 21.835938 L 49.859375 21.835938 L 49.335938 24.875 C 49.21875 25.578125 48.574219 26.132812 47.84375 26.132812 L 34.28125 26.132812 L 37.992188 4.855469 L 52.78125 4.886719 "/>
<path style=" stroke:none;fill-rule:nonzero;fill:rgb(13.70697%,26.792908%,50.068665%);fill-opacity:1;" d="M 70.171875 19.847656 C 70.171875 24.875 64.003906 26.484375 59.828125 26.484375 C 56.144531 26.484375 54.128906 25.78125 51.847656 24.789062 L 52.722656 19.820312 C 53.746094 20.902344 57.109375 22.101562 59.972656 22.101562 C 61.578125 22.101562 63.480469 21.515625 63.480469 20.171875 C 63.480469 16.867188 54.332031 17.304688 54.332031 10.964844 C 54.332031 7.339844 57.722656 4.5625 63.480469 4.5625 C 66.8125 4.5625 69.179688 5.234375 70.582031 5.851562 L 70.085938 8.65625 C 69.996094 9.238281 69.46875 9.648438 68.886719 9.648438 C 68.738281 9.648438 68.59375 9.621094 68.449219 9.5625 C 66.78125 8.917969 65.234375 8.742188 64.003906 8.742188 C 63.214844 8.742188 60.847656 8.890625 60.847656 10.46875 C 60.878906 13.59375 70.171875 13.359375 70.171875 19.847656 "/>
<path style=" stroke:none;fill-rule:nonzero;fill:rgb(13.70697%,26.792908%,50.068665%);fill-opacity:1;" d="M 91.507812 4.886719 L 90.980469 7.925781 C 90.863281 8.625 90.222656 9.183594 89.488281 9.183594 L 84.433594 9.183594 L 81.6875 24.875 C 81.570312 25.578125 80.925781 26.132812 80.195312 26.132812 L 75.140625 26.132812 L 78.121094 9.183594 L 71.808594 9.183594 L 72.570312 4.886719 L 91.507812 4.886719 "/>
<g clip-path="url(#clip1)" clip-rule="nonzero">
<path style=" stroke:none;fill-rule:nonzero;fill:rgb(13.70697%,26.792908%,50.068665%);fill-opacity:1;" d="M 100.1875 4.886719 L 96.855469 23.941406 C 95.65625 30.722656 91.535156 34.113281 87.152344 35.308594 L 83.675781 31.21875 C 86.800781 30.78125 89.636719 29.027344 90.542969 23.96875 L 93.875 4.914062 L 100.1875 4.886719 "/>
</g>
<path style=" stroke:none;fill-rule:nonzero;fill:rgb(13.70697%,26.792908%,50.068665%);fill-opacity:1;" d="M 118.21875 4.886719 L 117.691406 7.925781 C 117.578125 8.625 116.933594 9.183594 116.203125 9.183594 L 108.984375 9.183594 L 108.28125 13.15625 L 116.496094 13.15625 L 115.96875 16.195312 C 115.851562 16.898438 115.210938 17.453125 114.480469 17.453125 L 107.554688 17.453125 L 106.792969 21.835938 L 115.296875 21.835938 L 114.769531 24.875 C 114.652344 25.578125 114.011719 26.132812 113.28125 26.132812 L 99.71875 26.132812 L 103.433594 4.855469 L 118.21875 4.886719 "/>
<path style=" stroke:none;fill-rule:nonzero;fill:rgb(13.70697%,26.792908%,50.068665%);fill-opacity:1;" d="M 138.765625 4.886719 L 138.238281 7.925781 C 138.121094 8.625 137.480469 9.183594 136.75 9.183594 L 131.691406 9.183594 L 128.945312 24.875 C 128.828125 25.578125 128.1875 26.132812 127.453125 26.132812 L 122.398438 26.132812 L 125.378906 9.183594 L 119.039062 9.183594 L 119.796875 4.886719 L 138.765625 4.886719 "/>
<path style=" stroke:none;fill-rule:nonzero;fill:rgb(23.033142%,69.403076%,60.414124%);fill-opacity:1;" d="M 152.734375 14.089844 L 149.375 9.09375 C 149.375 9.09375 147.855469 10.789062 147.535156 11.167969 C 147.183594 11.550781 146.859375 11.78125 146.308594 11.722656 C 145.605469 11.609375 142.449219 10.964844 142.449219 10.964844 C 142.449219 10.964844 142.214844 14.824219 142.15625 15.203125 C 142.128906 15.582031 141.980469 16.078125 141.308594 16.664062 L 152.734375 14.089844 "/>
<path style=" stroke:none;fill-rule:nonzero;fill:rgb(23.033142%,69.403076%,60.414124%);fill-opacity:1;" d="M 165.507812 11.257812 L 169.480469 4.039062 C 169.480469 4.039062 166.882812 5.175781 166.003906 5.558594 C 165.15625 5.9375 164.808594 5.878906 164.660156 5.265625 C 164.542969 4.679688 163.898438 0.269531 163.871094 0.00390625 C 163.636719 0.269531 159.28125 4.679688 158.667969 5.265625 C 158.027344 5.878906 157.617188 5.9375 157.089844 5.558594 C 156.535156 5.175781 154.898438 4.066406 154.898438 4.066406 L 152.824219 14.121094 L 165.507812 11.257812 "/>
<path style=" stroke:none;fill-rule:nonzero;fill:rgb(23.033142%,69.403076%,60.414124%);fill-opacity:1;" d="M 172.84375 15.203125 C 173.105469 14.824219 176 10.964844 176 10.964844 C 176 10.964844 172.464844 11.636719 171.644531 11.722656 C 171.003906 11.8125 170.914062 11.550781 170.886719 11.167969 C 170.855469 10.964844 170.738281 8.832031 170.738281 8.832031 L 165.597656 11.34375 L 153.699219 25.371094 L 162.496094 26.746094 C 162.496094 26.746094 162.527344 25.402344 162.554688 24.410156 C 162.613281 23.414062 163.171875 23.238281 163.519531 23.035156 C 163.84375 22.832031 173.894531 17.042969 173.894531 17.042969 L 172.902344 16.488281 C 172.230469 16.136719 172.578125 15.582031 172.84375 15.203125 "/>
<path style=" stroke:none;fill-rule:nonzero;fill:rgb(13.70697%,26.792908%,50.068665%);fill-opacity:1;" d="M 139.789062 16.957031 C 139.789062 16.957031 144.027344 21.953125 144.203125 22.1875 C 145.195312 23.386719 145.195312 23.851562 144.171875 25.109375 C 143.355469 26.105469 142.855469 26.746094 142.855469 26.746094 C 142.855469 26.746094 148.761719 25.753906 149.550781 25.605469 C 150.3125 25.488281 151.070312 25.695312 150.863281 26.71875 C 150.75 27.417969 150.046875 31.304688 150.046875 31.304688 L 153.554688 25.34375 L 159.75 14.792969 L 141.105469 16.808594 L 139.789062 16.957031 "/>
<path style=" stroke:none;fill-rule:nonzero;fill:rgb(100%,100%,100%);fill-opacity:1;" d="M 165.597656 11.34375 L 153.699219 25.371094 L 153.554688 25.34375 L 159.75 14.792969 L 141.132812 16.808594 L 141.308594 16.664062 L 152.734375 14.121094 L 152.851562 14.089844 L 165.507812 11.257812 L 165.597656 11.34375 "/>
</g>
</svg>

<svg xmlns="http://www.w3.org/2000/svg" width="176pt" height="47.08" viewBox="0 0 176 35.31"><defs><clipPath id="a"><path d="M83 4h18v31.309H83Zm0 0"/></clipPath></defs><path d="m35.86 4.887-8.622 20.34a1.5 1.5 0 0 1-1.402.933H21.48l-3.742-10.433-4.558 9.59c-.23.523-.758.874-1.371.874h-4.27L0 4.887h6.723l4.207 13.558 4.27-9.847-1.348-3.743h6.023l4.586 13.563 5.234-13.563zM52.781 4.887l-.523 3.039a1.54 1.54 0 0 1-1.492 1.258h-7.22l-.702 3.972h8.215l-.528 3.04a1.53 1.53 0 0 1-1.488 1.257h-6.93l-.758 4.383h8.504l-.523 3.039a1.536 1.536 0 0 1-1.492 1.258H34.28l3.711-21.278zM70.172 19.848c0 5.027-6.168 6.636-10.344 6.636-3.683 0-5.7-.703-7.98-1.695l.875-4.969c1.023 1.082 4.386 2.282 7.25 2.282 1.605 0 3.507-.586 3.507-1.93 0-3.305-9.148-2.867-9.148-9.207 0-3.625 3.39-6.402 9.148-6.402 3.333 0 5.7.671 7.102 1.289l-.496 2.804c-.09.582-.617.992-1.2.992q-.22.001-.437-.085a12.3 12.3 0 0 0-4.445-.82c-.79 0-3.156.148-3.156 1.726.03 3.125 9.324 2.89 9.324 9.379M91.508 4.887l-.528 3.039a1.536 1.536 0 0 1-1.492 1.258h-5.054l-2.746 15.691a1.536 1.536 0 0 1-1.493 1.258h-5.054l2.98-16.95H71.81l.761-4.296z" style="stroke:none;fill-rule:nonzero;fill:#234480;fill-opacity:1"/><g clip-path="url(#a)"><path d="M100.188 4.887 96.855 23.94c-1.199 6.782-5.32 10.172-9.703 11.368l-3.476-4.09c3.125-.438 5.96-2.192 6.867-7.25l3.332-19.055z" style="stroke:none;fill-rule:nonzero;fill:#234480;fill-opacity:1"/></g><path d="m118.219 4.887-.528 3.039a1.53 1.53 0 0 1-1.488 1.258h-7.219l-.703 3.972h8.215l-.527 3.04a1.53 1.53 0 0 1-1.489 1.257h-6.925l-.762 4.383h8.504l-.527 3.039a1.53 1.53 0 0 1-1.489 1.258H99.72l3.715-21.278zM138.766 4.887l-.528 3.039a1.535 1.535 0 0 1-1.488 1.258h-5.059l-2.746 15.691a1.53 1.53 0 0 1-1.492 1.258h-5.055l2.98-16.95h-6.339l.758-4.296z" style="stroke:none;fill-rule:nonzero;fill:#234480;fill-opacity:1"/><path d="m152.734 14.09-3.359-4.996s-1.52 1.695-1.84 2.074c-.351.383-.676.613-1.226.555-.704-.114-3.86-.758-3.86-.758s-.234 3.86-.293 4.238c-.027.379-.176.875-.847 1.461zM165.508 11.258l3.972-7.219s-2.597 1.137-3.476 1.52c-.848.378-1.195.32-1.344-.293-.117-.586-.762-4.996-.789-5.262-.234.266-4.59 4.676-5.203 5.262-.64.613-1.05.672-1.578.293-.555-.383-2.192-1.493-2.192-1.493l-2.074 10.055zM172.844 15.203c.261-.379 3.156-4.238 3.156-4.238s-3.535.672-4.355.758c-.641.09-.73-.172-.758-.555-.032-.203-.149-2.336-.149-2.336l-5.14 2.512-11.899 14.027 8.797 1.375s.031-1.344.059-2.336c.058-.996.617-1.172.965-1.375.324-.203 10.375-5.992 10.375-5.992l-.993-.555c-.672-.351-.324-.906-.058-1.285" style="stroke:none;fill-rule:nonzero;fill:#3bb19a;fill-opacity:1"/><path d="M139.79 16.957s4.237 4.996 4.413 5.23c.992 1.2.992 1.665-.031 2.922-.817.996-1.317 1.637-1.317 1.637s5.907-.992 6.696-1.14c.762-.118 1.52.09 1.312 1.113-.113.699-.816 4.586-.816 4.586l3.508-5.961 6.195-10.551-18.645 2.016z" style="stroke:none;fill-rule:nonzero;fill:#234480;fill-opacity:1"/><path d="M165.598 11.344 153.699 25.37l-.144-.027 6.195-10.551-18.617 2.016.176-.145 11.425-2.543.118-.031 12.656-2.832z" style="stroke:none;fill-rule:nonzero;fill:#fff;fill-opacity:1"/></svg>
